X:527
T:Out on the Road
R:jig
C:Liz Carroll
D:Liz Carroll
Z:id:hn-jig-527
M:6/8
L:1/8
K:D
~F3 DFA | dfe d2c | BAd BAF | ABA FEE |
F2E DFA | dfe d2c | BAd BAF | EFE D3 :|
Add edB | Adf edB | Add Bdd | BAF AFE |
Add edB | Adf afd | BAF AFE | EFE D2F |
Add edB | Adf edB | Add Bdd | Adf e2f |
afd ~f3 | dBA ~d3 | BAF AFE | EFE D3 ||

